Papirus/32x32/apps/mx-updater.svg

<svg width="32" height="32" version="1.1" xmlns="http://www.w3.org/2000/svg">
 <defs>
  <style id="current-color-scheme" type="text/css">.ColorScheme-Text { color:#dfdfdf; } .ColorScheme-Highlight { color:#4285f4; }</style>
  <style id="current-color-scheme-6" type="text/css">.ColorScheme-Text { color:#dfdfdf; } .ColorScheme-Highlight { color:#4285f4; }</style>
  <style id="current-color-scheme-3" type="text/css">.ColorScheme-Text { color:#dfdfdf; } .ColorScheme-Highlight { color:#4285f4; }</style>
  <style id="current-color-scheme-35" type="text/css">.ColorScheme-Text { color:#dfdfdf; } .ColorScheme-Highlight { color:#4285f4; }</style>
 </defs>
 <path d="m5 22 11 5 9-3v-9l3-6-11-4-3 5-9 3z" style="fill:#60d938"/>
 <path d="m16.949219 5.0019531a0.99995354 0.99995354 0 0 0-0.806641 0.484375l-2.808594 4.6816409-8.6503902 2.882812a0.99995354 0.99995354 0 0 0-0.0332032 0.011719 0.99995354 0.99995354 0 0 0-0.0253906 0.009766 0.99995354 0.99995354 0 0 0-0.0800781 0.037109 0.99995354 0.99995354 0 0 0-0.5449219 1.052734v8.837891a0.99995354 0.99995354 0 0 0 0.5859375 0.910156l10.873046 4.941406a0.99995354 0.99995354 0 0 0 0.810547 0.111329 0.99995354 0.99995354 0 0 0 0.04687-0.01367l0.04883-0.01758 8.951172-2.982422a0.99995354 0.99995354 0 0 0 0.683597-0.949219v-8.763672l2.894531-5.789062a0.99995354 0.99995354 0 0 0-0.552734-1.3867191l-11-4a0.99995354 0.99995354 0 0 0-0.392578-0.058594zm0.484375 2.21875 9.169922 3.3359379-2.066407 4.134765-9.103515-4.138672zm-3.488282 4.8515629 8.322266 3.783203-6.21289 2.072265-8.3222661-3.783203zm-7.945312 3.480468 9 4.091797v6.802735l-9-4.091797zm18 1.835938v6.890625l-7 2.332031v-6.890625z" style="fill:currentColor;opacity:.2" class="ColorScheme-Text"/>
 <path class="ColorScheme-Text" d="m14 10-9 3m20 2-11-5 3-5 11 4.0000002zm-9 12 9-3v-9l-9 3m0 9v-9l-11-5v9z" style="fill:none;stroke-linecap:round;stroke-linejoin:round;stroke-width:1.9997071;stroke:currentColor"/>
 <path d="m16.949219 4.0019531a0.99995354 0.99995354 0 0 0-0.806641 0.484375l-2.808594 4.6816407-8.6503902 2.8828122a0.99995354 0.99995354 0 0 0-0.0332032 0.011719 0.99995354 0.99995354 0 0 0-0.0253906 0.009766 0.99995354 0.99995354 0 0 0-0.0800781 0.037109 0.99995354 0.99995354 0 0 0-0.5449219 1.052734v0.695313a0.99995354 0.99995354 0 0 1 0.5449219-0.748047 0.99995354 0.99995354 0 0 1 0.0800781-0.037109 0.99995354 0.99995354 0 0 1 0.0253906-0.009766 0.99995354 0.99995354 0 0 1 0.0332032-0.011719l8.6503902-2.882812 2.808594-4.6816409a0.99995354 0.99995354 0 0 1 0.806641-0.484375 0.99995354 0.99995354 0 0 1 0.392578 0.0585938l11 4a0.99995354 0.99995354 0 0 1 0.525391 0.4414062l0.027343-0.0546875a0.99995354 0.99995354 0 0 0-0.552734-1.3867187l-11-4a0.99995354 0.99995354 0 0 0-0.392578-0.0585938zm-1.044922 5.765625-0.470703 0.7851559 9.103515 4.138672 2.066407-4.134765-0.423828-0.154297-1.642579 3.289062-8.632812-3.9238279zm-6.9023439 3.9531249-1.2695312 0.423828 8.3222661 3.783203 6.21289-2.072265-1.269531-0.576172-4.943359 1.648437-7.0527349-3.207031zm-3.0019531 7.634766v1l9 4.091797v-1l-9-4.091797zm18 1.923828-7 2.332031v1l7-2.332031v-1z" style="fill:currentColor;opacity:.2" class="ColorScheme-Text"/>
 <path d="m16 18-2-8-11-4 2 7z" style="fill:#60d938"/>
 <path d="m2.9453125 6.0019531a1.0001 1.0001 0 0 0-0.90625 1.2734375l2 7.0000004a1.0001 1.0001 0 0 0 0.546875 0.634765l11 5a1.0001 1.0001 0 0 0 1.386718-1.140625l-1.90039-8a1.0001 1.0001 0 0 0-0.632813-0.710937l-11.099609-4.0000002a1.0001 1.0001 0 0 0-0.3945313-0.0566407zm1.5527344 2.6015625 8.7539061 3.1542964 1.302735 5.486329-8.7207036-3.962891z" style="opacity:.2"/>
 <path d="m5 13-2-7 11.1 4 1.9 8z" style="fill:none;stroke-linecap:round;stroke-linejoin:round;stroke-width:2;stroke:#e4e4e4"/>
 <path d="m2.9453125 5.0019531a1.0001 1.0001 0 0 0-0.90625 1.2734375l0.0761719 0.265625a1.0001 1.0001 0 0 1 0.8300781-0.5390625 1.0001 1.0001 0 0 1 0.3945313 0.0566407l11.099609 4.0000002a1.0001 1.0001 0 0 1 0.632813 0.710937l1.822265 7.673828a1.0001 1.0001 0 0 0 0.078125-0.673828l-1.90039-7.9999998a1.0001 1.0001 0 0 0-0.632813-0.7109374l-11.099609-4a1.0001 1.0001 0 0 0-0.3945313-0.0566407zm1.5527344 3.6015625 1.3359375 4.6777344 8.7207036 3.962891-0.265626-1.121094-8.4550776-3.841797-1.0175782-3.5625-0.3183593-0.1152344z" style="fill:#ffffff;opacity:.2"/>
</svg>

<svg xmlns="http://www.w3.org/2000/svg" width="32" height="32" version="1.1">
 <path style="fill:#60d938" d="M 5,22 16,27 25,24 V 15 L 28,8.9998 17,4.9998 14,9.9998 5,13 Z"/>
 <path style="opacity:0.2;fill:none;stroke:#000000;stroke-width:2;stroke-linecap:round;stroke-linejoin:round" d="M 14,11 5,14 M 25,16 14,11 17,5.9994 28,9.9994 Z M 16,28 25,25 V 16 L 16,19 M 16,28 V 19 L 5,14 V 23 Z"/>
 <path style="fill:none;stroke:#dfdfdf;stroke-width:1.99971;stroke-linecap:round;stroke-linejoin:round" d="M 14,9.9998 5,13 M 25,15 14,9.9998 17,4.9998 28,8.9998 Z M 16,27 25,24 V 15 L 16,18 M 16,27 V 18 L 5,13 V 22 Z"/>
 <path style="opacity:0.2;fill:#dfdfdf" d="M 16.949,4.0018 A 0.99995,0.99995 0 0 0 16.143,4.4861 L 13.334,9.1678 4.6836,12.051 A 0.99995,0.99995 0 0 0 4.6504,12.063 0.99995,0.99995 0 0 0 4.625,12.072 0.99995,0.99995 0 0 0 4.5449,12.109 0.99995,0.99995 0 0 0 4,13.162 V 13.857 A 0.99995,0.99995 0 0 1 4.5449,13.109 0.99995,0.99995 0 0 1 4.625,13.072 0.99995,0.99995 0 0 1 4.6504,13.063 0.99995,0.99995 0 0 1 4.6836,13.051 L 13.334,10.168 16.143,5.4861 A 0.99995,0.99995 0 0 1 16.949,5.0018 0.99995,0.99995 0 0 1 17.342,5.0603 L 28.342,9.0603 A 0.99995,0.99995 0 0 1 28.867,9.5018 L 28.895,9.4471 A 0.99995,0.99995 0 0 0 28.342,8.0603 L 17.342,4.0603 A 0.99995,0.99995 0 0 0 16.949,4.0018 Z M 15.904,9.7674 15.434,10.553 24.537,14.691 26.604,10.557 26.18,10.402 24.537,13.691 Z M 9.002,13.721 7.7324,14.145 16.055,17.928 22.268,15.855 20.998,15.279 16.055,16.928 Z M 6,21.355 V 22.355 L 15,26.447 V 25.447 Z M 24,23.279 17,25.611 V 26.611 L 24,24.279 Z"/>
 <path style="fill:#60d938" d="M 16,18 14,9.9998 3,5.9998 5,13 Z"/>
 <path style="opacity:0.2" d="M 2.9453,6.0018 A 1.0001,1.0001 0 0 0 2.0391,7.2752 L 4.0391,14.275 A 1.0001,1.0001 0 0 0 4.5859,14.91 L 15.586,19.91 A 1.0001,1.0001 0 0 0 16.973,18.77 L 15.072,10.77 A 1.0001,1.0001 0 0 0 14.439,10.059 L 3.3398,6.0584 A 1.0001,1.0001 0 0 0 2.9453,6.0018 Z M 4.498,8.6033 13.252,11.758 14.555,17.244 5.834,13.281 Z"/>
 <path style="fill:none;stroke:#e4e4e4;stroke-width:2;stroke-linecap:round;stroke-linejoin:round" d="M 5,13 3,5.9998 14.1,9.9998 16,18 Z"/>
 <path style="opacity:0.2;fill:#ffffff" d="M 2.9453,5.0018 A 1.0001,1.0001 0 0 0 2.0391,6.2752 L 2.1152,6.5408 A 1.0001,1.0001 0 0 1 2.9453,6.0018 1.0001,1.0001 0 0 1 3.3398,6.0584 L 14.439,10.059 A 1.0001,1.0001 0 0 1 15.072,10.77 L 16.895,18.443 A 1.0001,1.0001 0 0 0 16.973,17.77 L 15.072,9.7693 A 1.0001,1.0001 0 0 0 14.439,9.0584 L 3.3398,5.0584 A 1.0001,1.0001 0 0 0 2.9453,5.0018 Z M 4.498,8.6033 5.834,13.281 14.555,17.244 14.289,16.123 5.834,12.281 4.8164,8.7185 Z"/>
</svg>
